X: 444
T: Bull at the Wagon
C:Charles E. Trevathan, 1895
B: jims roots
M:C|
L:1/8
R: Reel
Q: 1/4=100
K:A
V:1 
%N:Charles Wolfe (The Devil's Box" 1997, p. p. 43). says that "Bull at the Wagon" is related
%N:to Clark Kessinger's "Red Bird" and "Billy Wilson."
%D:County Records CD 3524, Lewis Brothers &#8211; "Old Time Texas String Bands, vol. 2"
%D:Victor V-40172 (78 RPM), The Lewis Brothers  (July, 1929, El Paso, Tx.)
%F: http://www.slippery-hill.com/recording/bull-wagon-0
(3EFG [E2A2] |: AB | "A"cecA cecA | ceag fecA | "E"BcBA BcBA |
Bcfg fecB | "A"cecA cecB  | AAce ecBA | "E"[E3B3]e agfe | cABG "A"A2 :|
|: "A"+slide+([A2A2] | [AA])cee agfb | "E"gefg fecA | fgfe cBAF | B2FB- B2 (3EFG |
"A"Acee agfb | "E"gefg fecA | fgfe cBAG | "A"A2[G(A][A2)A2] :|
|: A,2- |"A"A,6 A,C | "E"B,6B,2 | EFGA Bcdf | edce Aec2 |
"A"A,6 A,C | "E"B,6B,2 | EFGA BcdB | cABA "A"A2: |]
D2E2G2 |:[P:A Part] "G"[G8B8] | "F#"[F8^A8] | "G"[G3B3] c B2 A2 | [B,4G4] "G7"[B,4=F4] | "C"[E3C] C E2 G2 |
B2c2^c2 |:[P:B Part] "G""1,3"[B3d3] ^c/d/ [B2e2] [B2d2] | "2,3"[D2B2] [d2B2] "D7"[A4=c4] | [F4c4] ([D4A4] | [D4F4]) z4|
"C"[G4e4] [G4c4] | "A7""3,4"[^C6G6] E^E | "D7"[F2A2] [F4d4] c2 | "G7"B3c B2 A2 | "G"([G8B8] | [G2B2]):|
V:G6e6 
 d2 | [c3E] d c2 B2 | "A7""3,4"[A4^C} E2 =F2 | "D"[^F2A][d2F]- [d2F]c2 | [B3D] c [B2D] A2 | "G"G8- | G2:|
V:A3c3 
 B/c/ [A2d2] [A2c2] | [F2A2] [F2^A2] "G"[G4B4] | [B,4G4] ([B,4D4]| [B,4D4]) z4 | "G"([B3G3]A) [D2B2] c2 | "G7"[^E6d6] g2 |
% abcbook-tune_id 6298c2457cfa61c20ef9efdf


% abcbook-boost 0
% abcbook-tablature 
% abcbook-transpose 
% abcbook-lastupdated 1654178373560
% abcbook-soundfonts 
% abcbook-repeats 1


